assets/about/commerce.svg

<svg width="201" height="176" viewBox="0 0 201 176" fill="none" xmlns="http://www.w3.org/2000/svg">
<g clip-path="url(#clip0_533_1457)">
<path d="M200.354 1.44141H156.661V174.558H200.354V1.44141Z" fill="#FFF3E8" stroke="#37352F" stroke-linecap="round" stroke-linejoin="round"/>
<path d="M140.211 45.5322H54.9932V121.395H140.211V45.5322Z" fill="#E2F1FF" stroke="#37352F" stroke-linecap="round" stroke-linejoin="round"/>
<path d="M148.205 1.44141H46.3574V30.6214H148.205V1.44141Z" fill="#DEFDFF" stroke="#37352F" stroke-linecap="round" stroke-linejoin="round"/>
<path d="M38.5554 1.44141H1.6377V121.382H38.5554V1.44141Z" fill="#FFF3E8" stroke="#37352F" stroke-linecap="round" stroke-linejoin="round"/>
<path d="M148.385 136.293H1.6377V174.546H148.385V136.293Z" fill="#DEFDFF" stroke="#37352F" stroke-linecap="round" stroke-linejoin="round"/>
<path d="M30.7275 45.5322H9.46484V53.3084H30.7275V45.5322Z" fill="white" stroke="#37352F" stroke-linecap="round" stroke-linejoin="round"/>
<path d="M140.211 153.809H107.425V165.807H140.211V153.809Z" fill="white" stroke="#37352F" stroke-linecap="round" stroke-linejoin="round"/>
<path d="M193.463 66.8076H163.552V77.7533H193.463V66.8076Z" fill="white" stroke="#37352F" stroke-linecap="round" stroke-linejoin="round"/>
<path d="M130.253 97.4121H95.748V110.039H130.253V97.4121Z" fill="white" stroke="#37352F" stroke-linecap="round" stroke-linejoin="round"/>
<path d="M141.79 16.0315H118.551V24.5391H141.79V16.0315Z" fill="white" stroke="#37352F" stroke-linecap="round" stroke-linejoin="round"/>
<path d="M14.1613 49.6514C14.1576 49.4068 14.2039 49.1639 14.2974 48.9377C14.3909 48.7116 14.5296 48.5069 14.7051 48.3363C14.8805 48.1657 15.0889 48.0327 15.3176 47.9455C15.5463 47.8583 15.7903 47.8188 16.0348 47.8293C16.2723 47.8237 16.5084 47.8663 16.729 47.9546C16.9495 48.0428 17.1499 48.1748 17.318 48.3426L17.0742 48.5864C16.9352 48.4465 16.7689 48.3367 16.5857 48.2639C16.4025 48.191 16.2062 48.1567 16.0092 48.1629C15.6144 48.1629 15.2358 48.3198 14.9566 48.5989C14.6775 48.8781 14.5206 49.2567 14.5206 49.6514C14.5206 50.0462 14.6775 50.4248 14.9566 50.704C15.2358 50.9831 15.6144 51.14 16.0092 51.14C16.2075 51.147 16.405 51.1117 16.5886 51.0364C16.7723 50.9612 16.9378 50.8478 17.0742 50.7037L17.318 50.9475C17.1505 51.117 16.9506 51.251 16.7301 51.3414C16.5096 51.4318 16.2731 51.4767 16.0348 51.4736C15.7903 51.4841 15.5463 51.4446 15.3176 51.3574C15.0889 51.2702 14.8805 51.1372 14.7051 50.9666C14.5296 50.796 14.3909 50.5913 14.2974 50.3652C14.2039 50.139 14.1576 49.8961 14.1613 49.6514Z" fill="#37352F"/>
<path d="M18.0889 47.6367H18.4867V51.4863H18.1274L18.0889 47.6367Z" fill="#37352F"/>
<path d="M19.3841 47.8934C19.3841 47.8586 19.3911 47.8242 19.4048 47.7922C19.4185 47.7602 19.4385 47.7313 19.4637 47.7073C19.4889 47.6833 19.5188 47.6646 19.5514 47.6525C19.584 47.6404 19.6188 47.6351 19.6536 47.6368C19.7074 47.6369 19.76 47.653 19.8045 47.6832C19.8491 47.7135 19.8836 47.7563 19.9035 47.8063C19.9235 47.8563 19.928 47.9111 19.9165 47.9637C19.9051 48.0163 19.8781 48.0643 19.8391 48.1014C19.8001 48.1385 19.7509 48.1631 19.6978 48.172C19.6447 48.1809 19.5902 48.1737 19.5412 48.1513C19.4923 48.129 19.4511 48.0924 19.4231 48.0465C19.3951 48.0005 19.3815 47.9472 19.3841 47.8934ZM19.4611 48.7532H19.8332V51.4479H19.4611V48.7532Z" fill="#37352F"/>
<path d="M20.5777 50.1006C20.5641 49.9157 20.5907 49.73 20.6557 49.5564C20.7207 49.3828 20.8226 49.2253 20.9543 49.0948C21.086 48.9643 21.2444 48.8639 21.4186 48.8005C21.5929 48.7371 21.7788 48.7122 21.9635 48.7275C22.1714 48.7159 22.3787 48.7582 22.5653 48.8504C22.752 48.9426 22.9116 49.0815 23.0286 49.2537L22.7463 49.4461C22.6608 49.3184 22.5439 49.2147 22.4068 49.1451C22.2698 49.0754 22.1171 49.0421 21.9635 49.0483C21.6845 49.0483 21.4168 49.1592 21.2195 49.3565C21.0222 49.5539 20.9113 49.8215 20.9113 50.1006C20.9113 50.3796 21.0222 50.6473 21.2195 50.8446C21.4168 51.0419 21.6845 51.1528 21.9635 51.1528C22.1171 51.159 22.2698 51.1257 22.4068 51.0561C22.5439 50.9864 22.6608 50.8827 22.7463 50.755L23.0286 50.9346C22.9131 51.1092 22.7541 51.2506 22.5674 51.3451C22.3807 51.4396 22.1726 51.4839 21.9635 51.4736C21.7788 51.4889 21.5929 51.4641 21.4186 51.4007C21.2444 51.3373 21.086 51.2369 20.9543 51.1064C20.8226 50.9759 20.7207 50.8184 20.6557 50.6448C20.5907 50.4711 20.5641 50.2855 20.5777 50.1006Z" fill="#37352F"/>
<path d="M24.6972 50.0875L24.0556 50.6778V51.4478H23.6963V47.5981H24.0556V50.1646L25.6724 48.7017H26.1857L25.0308 49.7924L26.314 51.3964H25.8649L24.6972 50.0875Z" fill="#37352F"/>
<path d="M124.094 20.2275C124.09 19.9817 124.137 19.7377 124.231 19.5106C124.325 19.2836 124.465 19.0783 124.642 18.9075C124.819 18.7367 125.029 18.604 125.259 18.5176C125.489 18.4312 125.735 18.393 125.98 18.4053C126.219 18.4014 126.455 18.4461 126.676 18.5365C126.897 18.6269 127.096 18.7613 127.263 18.9314L127.02 19.1752C126.883 19.0311 126.718 18.9177 126.534 18.8425C126.35 18.7673 126.153 18.732 125.955 18.739C125.56 18.739 125.181 18.8958 124.902 19.1749C124.623 19.4541 124.466 19.8327 124.466 20.2275C124.466 20.6223 124.623 21.0009 124.902 21.28C125.181 21.5592 125.56 21.716 125.955 21.716C126.152 21.7222 126.348 21.6879 126.531 21.615C126.714 21.5422 126.881 21.4324 127.02 21.2925L127.263 21.5235C127.098 21.6972 126.899 21.8348 126.678 21.9275C126.458 22.0203 126.22 22.0662 125.98 22.0624C125.734 22.073 125.488 22.0331 125.258 21.9453C125.028 21.8574 124.818 21.7235 124.641 21.5517C124.465 21.3799 124.325 21.1738 124.231 20.9461C124.137 20.7184 124.09 20.4739 124.094 20.2275Z" fill="#37352F"/>
<path d="M128.021 18.2258H128.393V22.0754H128.021V18.2258Z" fill="#37352F"/>
<path d="M129.329 18.4823C129.329 18.4142 129.356 18.349 129.404 18.3008C129.452 18.2527 129.518 18.2257 129.586 18.2257C129.619 18.224 129.653 18.2289 129.685 18.2402C129.717 18.2515 129.746 18.269 129.771 18.2917C129.796 18.3143 129.816 18.3417 129.831 18.3722C129.845 18.4027 129.854 18.4358 129.855 18.4695C129.855 18.5409 129.827 18.6095 129.776 18.66C129.726 18.7106 129.657 18.739 129.586 18.739C129.552 18.739 129.519 18.7323 129.488 18.7194C129.456 18.7065 129.428 18.6876 129.404 18.6638C129.38 18.64 129.362 18.6117 129.349 18.5805C129.336 18.5494 129.329 18.516 129.329 18.4823ZM129.406 19.3292H129.765V22.0239H129.406V19.3292Z" fill="#37352F"/>
<path d="M130.509 20.6766C130.496 20.4906 130.522 20.3037 130.588 20.1291C130.654 19.9545 130.757 19.7963 130.89 19.6656C131.023 19.5349 131.183 19.4348 131.359 19.3722C131.535 19.3097 131.722 19.2863 131.908 19.3036C132.115 19.293 132.322 19.3373 132.507 19.4319C132.691 19.5265 132.848 19.6682 132.96 19.8426L132.691 20.0222C132.603 19.897 132.485 19.7953 132.349 19.7259C132.212 19.6566 132.061 19.6217 131.908 19.6244C131.629 19.6244 131.361 19.7353 131.164 19.9326C130.967 20.13 130.856 20.3976 130.856 20.6766C130.856 20.9557 130.967 21.2234 131.164 21.4207C131.361 21.618 131.629 21.7289 131.908 21.7289C132.061 21.7316 132.212 21.6967 132.349 21.6274C132.485 21.558 132.603 21.4563 132.691 21.3311L132.96 21.5236C132.845 21.6947 132.688 21.8331 132.504 21.9253C132.319 22.0175 132.114 22.0604 131.908 22.0497C131.722 22.067 131.535 22.0436 131.359 21.9811C131.183 21.9185 131.023 21.8184 130.89 21.6877C130.757 21.557 130.654 21.3988 130.588 21.2242C130.522 21.0496 130.496 20.8627 130.509 20.6766Z" fill="#37352F"/>
<path d="M134.629 20.6766L134 21.254V22.0239H133.641V18.1743H133.974V20.7407L135.578 19.265H136.04L134.885 20.3686L136.169 21.9598H135.719L134.629 20.6766Z" fill="#37352F"/>
<path d="M171.88 72.2998C171.875 71.9911 171.932 71.6846 172.05 71.3992C172.167 71.1137 172.342 70.8554 172.564 70.6401C172.785 70.4249 173.048 70.2573 173.336 70.1477C173.625 70.038 173.933 69.9888 174.241 70.0028C174.547 69.9904 174.852 70.0436 175.135 70.1587C175.418 70.2737 175.674 70.4481 175.884 70.6701L175.576 70.9652C175.41 70.7928 175.211 70.6561 174.99 70.5634C174.769 70.4707 174.532 70.4241 174.293 70.4263C174.034 70.4049 173.775 70.4373 173.53 70.5214C173.285 70.6055 173.06 70.7395 172.869 70.9149C172.678 71.0904 172.526 71.3035 172.422 71.5407C172.318 71.778 172.264 72.0343 172.264 72.2934C172.264 72.5525 172.318 72.8087 172.422 73.046C172.526 73.2832 172.678 73.4963 172.869 73.6718C173.06 73.8473 173.285 73.9813 173.53 74.0654C173.775 74.1495 174.034 74.1818 174.293 74.1604C174.532 74.1627 174.769 74.116 174.99 74.0234C175.211 73.9307 175.41 73.7939 175.576 73.6215L175.884 73.9166C175.67 74.1376 175.412 74.3112 175.127 74.4262C174.842 74.5411 174.536 74.5948 174.229 74.5839C173.922 74.5961 173.617 74.5459 173.331 74.4362C173.044 74.3266 172.784 74.1599 172.564 73.9462C172.344 73.7325 172.17 73.4763 172.053 73.1933C171.935 72.9102 171.877 72.6062 171.88 72.2998Z" fill="#37352F"/>
<path d="M176.795 69.772H177.257V74.5455H176.795V69.772Z" fill="#37352F"/>
<path d="M178.425 70.0927C178.425 70.0267 178.444 69.9622 178.481 69.9073C178.518 69.8525 178.57 69.8097 178.631 69.7844C178.692 69.7592 178.759 69.7526 178.824 69.7654C178.888 69.7783 178.948 69.8101 178.994 69.8568C179.041 69.9034 179.073 69.9629 179.086 70.0276C179.099 70.0923 179.092 70.1594 179.067 70.2203C179.041 70.2813 178.999 70.3334 178.944 70.3701C178.889 70.4067 178.824 70.4263 178.758 70.4263C178.67 70.4263 178.585 70.3911 178.523 70.3286C178.46 70.266 178.425 70.1812 178.425 70.0927ZM178.527 71.1706H178.977V74.5454H178.527V71.1706Z" fill="#37352F"/>
<path d="M179.913 72.8515C179.906 72.6233 179.946 72.3959 180.031 72.1838C180.116 71.9717 180.243 71.7795 180.406 71.6192C180.569 71.4589 180.763 71.334 180.976 71.2524C181.19 71.1707 181.418 71.1342 181.646 71.1449C181.899 71.1341 182.151 71.19 182.376 71.3071C182.602 71.4242 182.792 71.5984 182.929 71.8122L182.595 72.0431C182.487 71.8827 182.339 71.7527 182.166 71.6651C181.993 71.5776 181.801 71.5354 181.607 71.5427C181.258 71.5427 180.924 71.6812 180.677 71.9279C180.431 72.1746 180.292 72.5091 180.292 72.858C180.292 73.2068 180.431 73.5414 180.677 73.788C180.924 74.0347 181.258 74.1733 181.607 74.1733C181.801 74.1805 181.993 74.1384 182.166 74.0508C182.339 73.9633 182.487 73.8332 182.595 73.6728L182.929 73.9038C182.79 74.1158 182.599 74.2885 182.375 74.4054C182.15 74.5223 181.899 74.5793 181.646 74.571C181.416 74.5819 181.187 74.545 180.973 74.4626C180.759 74.3802 180.564 74.2541 180.401 74.0924C180.238 73.9307 180.111 73.7369 180.027 73.5233C179.943 73.3097 179.904 73.0809 179.913 72.8515Z" fill="#37352F"/>
<path d="M185.058 72.8516L184.263 73.5831V74.5455H183.813V69.772H184.263V73.0056L186.277 71.1707H186.842L185.405 72.4924L186.983 74.4941H186.418L185.058 72.8516Z" fill="#37352F"/>
<path d="M114.431 159.866C114.434 159.499 114.512 159.137 114.659 158.801C114.806 158.465 115.02 158.162 115.287 157.911C115.555 157.661 115.871 157.467 116.215 157.342C116.56 157.217 116.927 157.163 117.293 157.184C117.66 157.167 118.026 157.23 118.367 157.367C118.708 157.504 119.016 157.713 119.269 157.979L118.91 158.339C118.701 158.128 118.45 157.962 118.174 157.851C117.898 157.741 117.603 157.688 117.306 157.697C116.714 157.697 116.146 157.932 115.727 158.351C115.308 158.77 115.073 159.338 115.073 159.93C115.073 160.522 115.308 161.09 115.727 161.509C116.146 161.927 116.714 162.163 117.306 162.163C117.604 162.172 117.901 162.119 118.177 162.006C118.454 161.893 118.703 161.724 118.91 161.508L119.269 161.88C119.011 162.14 118.703 162.343 118.363 162.478C118.023 162.613 117.658 162.676 117.293 162.663C116.917 162.685 116.541 162.628 116.188 162.496C115.835 162.364 115.514 162.159 115.245 161.896C114.975 161.633 114.764 161.316 114.624 160.967C114.484 160.617 114.418 160.242 114.431 159.866Z" fill="#37352F"/>
<path d="M120.334 156.85H120.873V162.56H120.334V156.85Z" fill="#37352F"/>
<path d="M122.284 157.184C122.284 157.078 122.326 156.977 122.401 156.902C122.475 156.828 122.576 156.786 122.682 156.786C122.787 156.786 122.889 156.828 122.963 156.902C123.038 156.977 123.08 157.078 123.08 157.184C123.08 157.289 123.038 157.39 122.963 157.465C122.889 157.54 122.787 157.581 122.682 157.581C122.576 157.581 122.475 157.54 122.401 157.465C122.326 157.39 122.284 157.289 122.284 157.184ZM122.4 158.467H122.951V162.522H122.425L122.4 158.467Z" fill="#37352F"/>
<path d="M124.068 160.533C124.059 160.259 124.107 159.985 124.209 159.73C124.31 159.476 124.463 159.244 124.659 159.052C124.854 158.859 125.087 158.708 125.343 158.61C125.599 158.512 125.873 158.467 126.147 158.48C126.459 158.46 126.771 158.524 127.05 158.663C127.329 158.803 127.567 159.014 127.738 159.275L127.328 159.558C127.198 159.366 127.022 159.21 126.815 159.104C126.609 158.999 126.379 158.947 126.147 158.955C125.729 158.955 125.327 159.121 125.031 159.417C124.735 159.713 124.569 160.114 124.569 160.533C124.569 160.951 124.735 161.353 125.031 161.649C125.327 161.945 125.729 162.111 126.147 162.111C126.378 162.121 126.607 162.072 126.814 161.969C127.02 161.866 127.197 161.711 127.328 161.521L127.738 161.79C127.568 162.053 127.331 162.266 127.051 162.408C126.772 162.55 126.46 162.616 126.147 162.599C125.873 162.61 125.598 162.564 125.342 162.464C125.086 162.364 124.853 162.212 124.658 162.018C124.463 161.825 124.31 161.593 124.209 161.337C124.107 161.081 124.059 160.808 124.068 160.533Z" fill="#37352F"/>
<path d="M130.253 160.52L129.291 161.405V162.56H128.752V156.85H129.291V160.7L131.703 158.493H132.383L130.651 160.148L132.55 162.548H131.883L130.253 160.52Z" fill="#37352F"/>
<path d="M103.998 103.828C103.994 103.46 104.066 103.094 104.208 102.754C104.351 102.414 104.561 102.106 104.827 101.85C105.092 101.594 105.407 101.395 105.753 101.265C106.098 101.136 106.466 101.078 106.834 101.095C107.198 101.079 107.562 101.14 107.9 101.275C108.239 101.41 108.545 101.615 108.798 101.878L108.438 102.237C108.232 102.025 107.985 101.858 107.711 101.748C107.437 101.637 107.142 101.586 106.847 101.596C106.255 101.596 105.687 101.831 105.268 102.249C104.85 102.668 104.614 103.236 104.614 103.828C104.614 104.42 104.85 104.988 105.268 105.407C105.687 105.826 106.255 106.061 106.847 106.061C107.142 106.071 107.437 106.019 107.711 105.909C107.985 105.798 108.232 105.632 108.438 105.419L108.798 105.779C108.544 106.045 108.237 106.254 107.896 106.391C107.555 106.529 107.189 106.591 106.821 106.574C106.453 106.59 106.085 106.53 105.741 106.399C105.396 106.268 105.082 106.067 104.818 105.81C104.553 105.553 104.344 105.245 104.203 104.904C104.063 104.563 103.993 104.197 103.998 103.828Z" fill="#37352F"/>
<path d="M109.901 100.813H110.453V106.523H109.901V100.813Z" fill="#37352F"/>
<path d="M111.852 101.198C111.855 101.094 111.898 100.996 111.973 100.925C112.047 100.853 112.146 100.813 112.249 100.813C112.3 100.811 112.35 100.819 112.398 100.837C112.445 100.855 112.488 100.882 112.525 100.916C112.562 100.951 112.592 100.992 112.613 101.038C112.634 101.085 112.645 101.134 112.647 101.185C112.649 101.238 112.64 101.291 112.621 101.341C112.601 101.391 112.572 101.436 112.535 101.474C112.498 101.513 112.454 101.543 112.405 101.564C112.355 101.585 112.303 101.595 112.249 101.595C112.144 101.595 112.043 101.554 111.968 101.479C111.893 101.404 111.852 101.303 111.852 101.198ZM111.967 102.481H112.519V106.523H111.967V102.481Z" fill="#37352F"/>
<path d="M113.636 104.496C113.626 104.22 113.674 103.946 113.777 103.69C113.879 103.434 114.033 103.202 114.23 103.009C114.427 102.816 114.661 102.666 114.919 102.569C115.177 102.471 115.452 102.428 115.727 102.442C116.04 102.43 116.351 102.502 116.626 102.651C116.901 102.8 117.132 103.021 117.293 103.289L116.882 103.559C116.754 103.368 116.58 103.212 116.376 103.107C116.172 103.001 115.944 102.949 115.714 102.956C115.296 102.956 114.894 103.122 114.598 103.418C114.302 103.714 114.136 104.115 114.136 104.534C114.136 104.953 114.302 105.354 114.598 105.65C114.894 105.946 115.296 106.112 115.714 106.112C115.944 106.128 116.174 106.081 116.379 105.977C116.585 105.873 116.758 105.716 116.882 105.522L117.293 105.804C117.12 106.062 116.885 106.27 116.608 106.41C116.332 106.549 116.024 106.615 115.714 106.6C115.436 106.611 115.159 106.564 114.9 106.462C114.641 106.36 114.406 106.205 114.21 106.007C114.015 105.808 113.863 105.572 113.764 105.312C113.665 105.052 113.621 104.774 113.636 104.496Z" fill="#37352F"/>
<path d="M119.859 104.496L118.896 105.368V106.523H118.357V100.813H118.896V104.662L121.322 102.455H121.989L120.269 104.098L122.156 106.497H121.488L119.859 104.496Z" fill="#37352F"/>
</g>
<defs>
<clipPath id="clip0_533_1457">
<rect width="200" height="174.4" fill="white" transform="translate(0.996094 0.799805)"/>
</clipPath>
</defs>
</svg>

<svg xmlns="http://www.w3.org/2000/svg" width="201" height="176" fill="none" xmlns:v="https://vecta.io/nano"><g clip-path="url(#A)"><g stroke="#37352f" stroke-linejoin="round"><path d="M200.354 1.441h-43.693v173.117h43.693V1.441z" fill="#fff3e8"/><path d="M140.211 45.532H54.993v75.863h85.218V45.532z" fill="#e2f1ff"/><path d="M148.205 1.441H46.357v29.18h101.848V1.441z" fill="#defdff"/><path d="M38.555 1.441H1.638v119.941h36.918V1.441z" fill="#fff3e8"/><path d="M148.385 136.293H1.638v38.253h146.747v-38.253z" fill="#defdff"/><g fill="#fff"><path d="M30.728 45.532H9.465v7.776h21.263v-7.776zm109.483 108.277h-32.786v11.998h32.786v-11.998zm53.252-87.001h-29.911v10.946h29.911V66.808zm-63.21 30.604H95.748v12.627h34.505V97.412zm11.537-81.38h-23.239v8.508h23.239v-8.508z"/></g></g><g fill="#37352f"><path d="M14.161 49.651a1.8 1.8 0 0 1 .136-.714c.093-.226.232-.431.408-.601a1.81 1.81 0 0 1 .613-.391 1.79 1.79 0 0 1 .717-.116 1.75 1.75 0 0 1 .694.125 1.76 1.76 0 0 1 .589.388l-.244.244c-.139-.14-.305-.25-.489-.322a1.46 1.46 0 0 0-.576-.101 1.49 1.49 0 0 0-1.489 1.489 1.49 1.49 0 0 0 1.489 1.489c.198.007.396-.028.579-.104a1.4 1.4 0 0 0 .486-.333l.244.244a1.77 1.77 0 0 1-1.283.526c-.245.011-.489-.029-.717-.116a1.8 1.8 0 0 1-1.021-.992c-.094-.226-.14-.469-.136-.714zm3.928-2.014h.398v3.85h-.359l-.039-3.85zm1.295.256a.25.25 0 0 1 .021-.101c.014-.032.034-.061.059-.085s.055-.043.088-.055.067-.017.102-.016a.27.27 0 0 1 .186.464.27.27 0 0 1-.455-.208zm.077.86h.372v2.695h-.372v-2.695zm1.117 1.348c-.014-.185.013-.371.078-.544a1.29 1.29 0 0 1 .299-.462c.132-.131.29-.231.464-.294s.36-.088.545-.073c.208-.012.415.031.602.123a1.2 1.2 0 0 1 .463.403l-.282.192a.9.9 0 0 0-.783-.398 1.05 1.05 0 0 0-.744.308c-.197.197-.308.465-.308.744a1.05 1.05 0 0 0 1.052 1.052.9.9 0 0 0 .783-.398l.282.18a1.2 1.2 0 0 1-.461.41c-.187.094-.395.139-.604.128a1.28 1.28 0 0 1-.545-.073 1.29 1.29 0 0 1-.763-.756c-.065-.174-.092-.359-.078-.544zm4.119-.013l-.642.59v.77h-.359v-3.85h.359v2.566l1.617-1.463h.513l-1.155 1.091 1.283 1.604h-.449l-1.168-1.309zm99.397-29.86a1.8 1.8 0 0 1 .137-.717 1.79 1.79 0 0 1 .411-.603 1.8 1.8 0 0 1 .617-.39 1.79 1.79 0 0 1 .721-.112 1.76 1.76 0 0 1 .696.131 1.75 1.75 0 0 1 .587.395l-.243.244a1.4 1.4 0 0 0-1.065-.436 1.49 1.49 0 0 0-1.489 1.488 1.49 1.49 0 0 0 1.489 1.489c.197.006.393-.028.576-.101a1.44 1.44 0 0 0 .489-.322l.243.231a1.73 1.73 0 0 1-.585.404 1.72 1.72 0 0 1-.698.135 1.81 1.81 0 0 1-.722-.117 1.82 1.82 0 0 1-.617-.394c-.176-.172-.316-.378-.41-.606a1.81 1.81 0 0 1-.137-.719zm3.927-2.002h.372v3.85h-.372v-3.85zm1.308.256c0-.068.027-.133.075-.181s.114-.075.182-.075a.26.26 0 0 1 .099.015c.032.011.061.029.086.051s.045.05.06.081a.24.24 0 0 1 .024.097.27.27 0 0 1-.079.191c-.051.051-.119.079-.19.079-.034 0-.067-.007-.098-.02s-.06-.032-.084-.056-.042-.052-.055-.083-.02-.065-.02-.098zm.077.847h.359v2.695h-.359v-2.695zm1.103 1.348a1.29 1.29 0 0 1 .381-1.01 1.28 1.28 0 0 1 .469-.293c.176-.062.363-.086.549-.069.207-.011.414.034.599.128a1.18 1.18 0 0 1 .453.411l-.269.18a.94.94 0 0 0-.783-.398 1.05 1.05 0 0 0-.744.308c-.197.197-.308.465-.308.744s.111.547.308.744a1.05 1.05 0 0 0 .744.308.94.94 0 0 0 .783-.398l.269.192c-.115.171-.272.31-.456.402s-.39.135-.596.124a1.28 1.28 0 0 1-1.018-.362 1.29 1.29 0 0 1-.302-.463c-.066-.175-.092-.361-.079-.548zm4.12 0l-.629.577v.77h-.359v-3.85h.333v2.566l1.604-1.476h.462l-1.155 1.104 1.284 1.591h-.45l-1.09-1.283zM171.88 72.3a2.26 2.26 0 0 1 .17-.901 2.24 2.24 0 0 1 .514-.759 2.26 2.26 0 0 1 1.677-.637 2.15 2.15 0 0 1 .894.156 2.14 2.14 0 0 1 .749.511l-.308.295c-.166-.172-.365-.309-.586-.402a1.76 1.76 0 0 0-.697-.137 1.87 1.87 0 0 0-.763.095 1.88 1.88 0 0 0-.661.394 1.87 1.87 0 0 0-.447.626c-.104.237-.158.494-.158.753a1.88 1.88 0 0 0 .158.753 1.87 1.87 0 0 0 .447.626 1.88 1.88 0 0 0 .661.394 1.87 1.87 0 0 0 .763.095 1.76 1.76 0 0 0 .697-.137c.221-.093.42-.23.586-.402l.308.295a2.2 2.2 0 0 1-.757.51 2.19 2.19 0 0 1-.898.158c-.307.012-.612-.038-.898-.148s-.547-.276-.767-.49a2.25 2.25 0 0 1-.511-.753 2.28 2.28 0 0 1-.173-.893zm4.915-2.528h.462v4.773h-.462v-4.773zm1.63.321a.33.33 0 0 1 .056-.185c.037-.055.089-.098.15-.123s.128-.032.193-.019a.33.33 0 0 1 .17.091c.047.047.079.106.092.171s.006.132-.019.193-.068.113-.123.15-.12.056-.186.056a.33.33 0 0 1-.235-.098c-.062-.063-.098-.147-.098-.236zm.102 1.078h.45v3.375h-.45v-3.375zm1.386 1.681a1.66 1.66 0 0 1 .493-1.233 1.66 1.66 0 0 1 1.24-.474 1.45 1.45 0 0 1 .73.162c.226.117.416.291.553.505l-.334.231a1.14 1.14 0 0 0-.988-.5 1.32 1.32 0 0 0-.93 2.245c.247.247.581.385.93.385a1.14 1.14 0 0 0 .559-.123c.173-.087.321-.218.429-.378l.334.231c-.139.212-.33.385-.554.502s-.476.174-.729.166a1.66 1.66 0 0 1-1.245-.478 1.65 1.65 0 0 1-.374-.569 1.66 1.66 0 0 1-.114-.672zm5.145 0l-.795.731v.962h-.45v-4.773h.45v3.234l2.014-1.835h.565l-1.437 1.322 1.578 2.002h-.565l-1.36-1.642zm-70.627 87.014a2.71 2.71 0 0 1 .228-1.065c.147-.336.361-.639.628-.89s.584-.444.928-.569a2.71 2.71 0 0 1 1.078-.158c.367-.017.733.046 1.074.183s.649.346.902.612l-.359.36a2.18 2.18 0 0 0-.736-.488c-.276-.11-.571-.163-.868-.154-.592 0-1.16.235-1.579.654s-.654.987-.654 1.579.235 1.16.654 1.579.987.654 1.579.654a2.13 2.13 0 0 0 .871-.157c.277-.113.526-.282.733-.498l.359.372c-.258.26-.566.463-.906.598s-.705.198-1.07.185c-.376.022-.752-.035-1.105-.167s-.674-.337-.943-.6a2.7 2.7 0 0 1-.621-.929c-.14-.35-.206-.725-.193-1.101zm5.903-3.016h.539v5.71h-.539v-5.71zm1.95.334a.4.4 0 0 1 .117-.282c.074-.074.175-.116.281-.116a.4.4 0 0 1 .398.398c0 .105-.042.206-.117.281s-.176.116-.281.116-.207-.041-.281-.116a.4.4 0 0 1-.117-.281zm.116 1.283h.551v4.055h-.526l-.025-4.055zm1.668 2.066a1.99 1.99 0 0 1 .141-.803c.101-.254.254-.486.45-.678a1.98 1.98 0 0 1 .684-.442c.256-.098.53-.143.804-.13.312-.02.624.044.903.183s.517.351.688.612l-.41.283c-.13-.192-.306-.348-.513-.454a1.37 1.37 0 0 0-.668-.149 1.58 1.58 0 0 0-1.116.462c-.296.296-.462.697-.462 1.116a1.58 1.58 0 0 0 1.578 1.578c.231.01.46-.039.667-.142a1.37 1.37 0 0 0 .514-.448l.41.269a1.77 1.77 0 0 1-.687.618 1.78 1.78 0 0 1-.904.191c-.274.011-.549-.035-.805-.135s-.489-.252-.684-.446a1.98 1.98 0 0 1-.449-.681c-.102-.256-.15-.529-.141-.804zm6.185-.013l-.962.885v1.155h-.539v-5.71h.539v3.85l2.412-2.207h.68l-1.732 1.655 1.899 2.4h-.667l-1.63-2.028zm-26.255-56.692c-.004-.368.068-.734.21-1.074a2.7 2.7 0 0 1 1.545-1.489 2.73 2.73 0 0 1 1.081-.17 2.57 2.57 0 0 1 1.066.18 2.56 2.56 0 0 1 .898.603l-.36.359a2.11 2.11 0 0 0-1.591-.641c-.592 0-1.16.235-1.579.653a2.23 2.23 0 0 0-.654 1.579c0 .592.236 1.16.654 1.579a2.23 2.23 0 0 0 1.579.654 2.13 2.13 0 0 0 .864-.152c.274-.111.521-.277.727-.49l.36.36c-.254.266-.561.475-.902.612a2.55 2.55 0 0 1-1.075.183c-.368.016-.736-.044-1.08-.175s-.659-.332-.923-.589a2.71 2.71 0 0 1-.615-.906 2.72 2.72 0 0 1-.205-1.076zm5.903-3.015h.552v5.71h-.552v-5.71zm1.951.385a.39.39 0 0 1 .121-.273c.074-.072.173-.112.276-.112a.38.38 0 0 1 .149.024.4.4 0 0 1 .127.079c.037.035.067.076.088.122a.39.39 0 0 1 .034.147c.002.051-.007.106-.026.156a.39.39 0 0 1-.216.223.4.4 0 0 1-.156.031c-.105 0-.206-.041-.281-.116s-.116-.176-.116-.281zm.115 1.283h.552v4.042h-.552v-4.042zm1.669 2.015c-.01-.276.038-.55.141-.806a1.98 1.98 0 0 1 1.142-1.121 1.99 1.99 0 0 1 .808-.127 1.75 1.75 0 0 1 .899.209c.275.149.506.37.667.638l-.411.27a1.36 1.36 0 0 0-.506-.452c-.204-.106-.432-.158-.662-.151a1.58 1.58 0 0 0-1.116.462c-.296.296-.462.697-.462 1.116s.166.82.462 1.116a1.58 1.58 0 0 0 1.116.462c.23.016.46-.031.665-.135a1.28 1.28 0 0 0 .503-.455l.411.282a1.8 1.8 0 0 1-.685.606c-.276.139-.584.205-.894.19-.278.011-.555-.036-.814-.138s-.494-.257-.69-.455a2.02 2.02 0 0 1-.446-.695 1.99 1.99 0 0 1-.128-.816zm6.223 0l-.963.872v1.155h-.539v-5.71h.539v3.849l2.426-2.207h.667l-1.72 1.643 1.887 2.399h-.668l-1.629-2.001z"/></g></g><defs><clipPath id="A"><path fill="#fff" transform="translate(.996 .8)" d="M0 0h200v174.4H0z"/></clipPath></defs></svg>
